P3
8 8
255
26 35 58  26 35 58  26 35 58  26 35 58  26 35 58  26 35 58  26 35 58  26 35 58
26 35 58  255 194 71  255 194 71  26 35 58  26 35 58  87 207 225  87 207 225  26 35 58
26 35 58  255 194 71  255 194 71  26 35 58  26 35 58  87 207 225  87 207 225  26 35 58
26 35 58  26 35 58  26 35 58  236 86 132  236 86 132  26 35 58  26 35 58  26 35 58
26 35 58  26 35 58  26 35 58  236 86 132  236 86 132  26 35 58  26 35 58  26 35 58
26 35 58  126 230 152  126 230 152  26 35 58  26 35 58  178 133 255  178 133 255  26 35 58
26 35 58  126 230 152  126 230 152  26 35 58  26 35 58  178 133 255  178 133 255  26 35 58
26 35 58  26 35 58  26 35 58  26 35 58  26 35 58  26 35 58  26 35 58  26 35 58
